svgs/duotone/file-contract.svg

<svg xmlns="http://www.w3.org/2000/svg" viewBox="0 0 384 512"><!-- Font Awesome Pro 6.0.0-alpha2 by @fontawesome - https://fontawesome.com License - https://fontawesome.com/license (Commercial License) --><defs><style>.fa-secondary{opacity:.4}</style></defs><path d="M256 0H48C21.49 0 0 21.492 0 48V464C0 490.508 21.49 512 48 512H336C362.51 512 384 490.508 384 464V128H256V0ZM64 72C64 67.625 67.625 64 72 64H152C156.375 64 160 67.625 160 72V88C160 92.375 156.375 96 152 96H72C67.625 96 64 92.375 64 88V72ZM64 136C64 131.625 67.625 128 72 128H152C156.375 128 160 131.625 160 136V152C160 156.375 156.375 160 152 160H72C67.625 160 64 156.375 64 152V136ZM246.625 377.5C248.625 381.5 252.625 384 256.75 384H304C312.875 384 320 391.125 320 400S312.875 416 304 416H256.75C240.375 416 225.5 406.875 218.125 392.125C215.25 386.25 210.125 385.625 208 385.625S200.75 386.25 197.999 391.75L190.25 407.125C187.625 412.625 181.999 416 176 416H174.875C168.375 415.5 162.875 411.25 160.875 405L144 354.625L133.375 386.5C127.5 404.125 111 416 92.375 416H80C71.125 416 64 408.875 64 400S71.125 384 80 384H92.375C97.25 384 101.5 380.875 103 376.375L121.25 321.75C124.5 311.875 133.625 305.25 144 305.25S163.5 311.875 166.75 321.75L180.625 363.375C200.375 347.125 234.75 353.625 246.625 377.5Z" class="fa-secondary"/><path d="M256 0V128H384L256 0ZM304 384H256.75C252.625 384 248.625 381.5 246.625 377.5C234.75 353.625 200.375 347.125 180.625 363.375L166.75 321.75C163.5 311.875 154.375 305.25 144 305.25S124.5 311.875 121.25 321.75L103 376.375C101.5 380.875 97.25 384 92.375 384H80C71.125 384 64 391.125 64 400S71.125 416 80 416H92.375C111 416 127.5 404.125 133.375 386.5L144 354.625L160.875 405C162.875 411.25 168.375 415.5 174.875 416H176C181.999 416 187.625 412.625 190.25 407.125L197.999 391.75C200.75 386.25 205.875 385.625 208 385.625S215.25 386.25 218.125 392.125C225.5 406.875 240.375 416 256.75 416H304C312.875 416 320 408.875 320 400S312.875 384 304 384Z" class="fa-primary"/></svg>

<svg xmlns="http://www.w3.org/2000/svg" viewBox="0 0 384 512"><!--! Font Awesome Pro 6.3.0 by @fontawesome - https://fontawesome.com License - https://fontawesome.com/license (Commercial License) Copyright 2023 Fonticons, Inc. --><defs><style>.fa-secondary{opacity:.4}</style></defs><path class="fa-primary" d="M256 0v128h128L256 0zM304 384h-47.25c-4.125 0-8.125-2.5-10.12-6.5c-11.88-23.88-46.25-30.38-66-14.12l-13.88-41.63C163.5 311.9 154.4 305.3 144 305.3s-19.5 6.625-22.75 16.5L103 376.4C101.5 380.9 97.25 384 92.38 384H80C71.13 384 64 391.1 64 400S71.13 416 80 416h12.38c18.62 0 35.13-11.88 41-29.5L144 354.6L160.9 405c2 6.25 7.5 10.5 14 11H176c5.999 0 11.62-3.375 14.25-8.875l7.75-15.38c2.751-5.5 7.875-6.125 10-6.125s7.25 .625 10.12 6.5C225.5 406.9 240.4 416 256.8 416H304c8.875 0 16-7.125 16-16S312.9 384 304 384z"/><path class="fa-secondary" d="M256 0H48C21.49 0 0 21.49 0 48v416C0 490.5 21.49 512 48 512h288c26.51 0 48-21.49 48-48V128h-128V0zM64 72C64 67.63 67.63 64 72 64h80C156.4 64 160 67.63 160 72v16C160 92.38 156.4 96 152 96h-80C67.63 96 64 92.38 64 88V72zM64 136C64 131.6 67.63 128 72 128h80C156.4 128 160 131.6 160 136v16C160 156.4 156.4 160 152 160h-80C67.63 160 64 156.4 64 152V136zM246.6 377.5c2 4 6 6.5 10.12 6.5H304c8.875 0 16 7.125 16 16S312.9 416 304 416h-47.25c-16.38 0-31.25-9.125-38.63-23.88c-2.875-5.875-8-6.5-10.12-6.5s-7.25 .625-10 6.125l-7.75 15.38C187.6 412.6 181.1 416 176 416H174.9c-6.5-.5-12-4.75-14-11L144 354.6L133.4 386.5C127.5 404.1 111 416 92.38 416H80C71.13 416 64 408.9 64 400S71.13 384 80 384h12.38c4.875 0 9.125-3.125 10.62-7.625l18.25-54.63C124.5 311.9 133.6 305.3 144 305.3s19.5 6.625 22.75 16.5l13.88 41.63C200.4 347.1 234.8 353.6 246.6 377.5z"/></svg>
